Numix/16/status/indicator-keyboard-Lt-3.svg

<?xml version="1.0" encoding="UTF-8" standalone="no"?>
<svg
   xmlns:dc="http://purl.org/dc/elements/1.1/"
   xmlns:cc="http://creativecommons.org/ns#"
   xmlns:rdf="http://www.w3.org/1999/02/22-rdf-syntax-ns#"
   xmlns:svg="http://www.w3.org/2000/svg"
   xmlns="http://www.w3.org/2000/svg"
   xmlns:sodipodi="http://sodipodi.sourceforge.net/DTD/sodipodi-0.dtd"
   xmlns:inkscape="http://www.inkscape.org/namespaces/inkscape"
   viewBox="0 0 16 16"
   id="svg2"
   version="1.1"
   inkscape:version="0.91 r13725"
   sodipodi:docname="indicator-keyboard-Lt-3.svg">
  <metadata
     id="metadata14">
    <rdf:RDF>
      <cc:Work
         rdf:about="">
        <dc:format>image/svg+xml</dc:format>
        <dc:type
           rdf:resource="http://purl.org/dc/dcmitype/StillImage" />
      </cc:Work>
    </rdf:RDF>
  </metadata>
  <defs
     id="defs12" />
  <sodipodi:namedview
     pagecolor="#ffffff"
     bordercolor="#666666"
     borderopacity="1"
     objecttolerance="10"
     gridtolerance="10"
     guidetolerance="10"
     inkscape:pageopacity="0"
     inkscape:pageshadow="2"
     inkscape:window-width="459"
     inkscape:window-height="369"
     id="namedview10"
     showgrid="false"
     inkscape:zoom="14.75"
     inkscape:cx="8"
     inkscape:cy="8"
     inkscape:window-x="65"
     inkscape:window-y="24"
     inkscape:window-maximized="0"
     inkscape:current-layer="svg2" />
  <path
     style="fill:#ececec;fill-opacity:1"
     d="M 1.5996094 0 C 0.71320937 2.9605947e-16 0 0.71320937 0 1.5996094 L 0 14.400391 C 2.9605947e-16 15.286791 0.71320937 16 1.5996094 16 L 14.400391 16 C 15.286791 16 16 15.286791 16 14.400391 L 16 1.5996094 C 16 0.71320937 15.286791 0 14.400391 0 L 1.5996094 0 z M 2.9960938 4.859375 L 3.6074219 4.859375 L 3.6074219 10.564453 L 6.5429688 10.564453 L 6.5429688 11.095703 L 2.9960938 11.095703 L 2.9960938 4.859375 z M 8.0273438 4.9667969 L 8.0273438 6.4433594 L 9.8808594 6.4433594 L 9.8808594 6.9375 L 8.0273438 6.9375 L 8.0273438 9.4121094 C 8.0273438 9.6761094 8.0478438 9.8925467 8.0898438 10.060547 C 8.1378438 10.222547 8.2031094 10.349453 8.2871094 10.439453 C 8.3711094 10.529453 8.47375 10.589141 8.59375 10.619141 C 8.71375 10.649141 8.8462344 10.664062 8.9902344 10.664062 C 9.2362344 10.664062 9.4339844 10.636031 9.5839844 10.582031 C 9.7339844 10.522031 9.8515469 10.469875 9.9355469 10.421875 L 10.078125 10.90625 C 9.9941249 10.96025 9.8486719 11.023703 9.6386719 11.095703 C 9.4286719 11.161703 9.199125 11.195313 8.953125 11.195312 C 8.665125 11.195312 8.4226094 11.159891 8.2246094 11.087891 C 8.0326094 11.009891 7.8758594 10.894141 7.7558594 10.744141 C 7.6418594 10.588141 7.5616719 10.397922 7.5136719 10.169922 C 7.4656719 9.9419217 7.4414063 9.671375 7.4414062 9.359375 L 7.4414062 5.0742188 L 8.0273438 4.9667969 z M 11.634766 8.7539062 C 11.837565 8.7539062 12.01195 8.7793781 12.15625 8.8300781 C 12.30445 8.8807781 12.425938 8.953275 12.523438 9.046875 C 12.620937 9.136575 12.693434 9.2463 12.740234 9.375 C 12.787034 9.4997999 12.810547 9.6350031 12.810547 9.7832031 C 12.810547 10.021103 12.745888 10.217041 12.617188 10.369141 C 12.492387 10.517341 12.331713 10.625106 12.132812 10.691406 C 12.242013 10.718706 12.345866 10.759859 12.447266 10.818359 C 12.552566 10.872959 12.646616 10.945456 12.728516 11.035156 C 12.810416 11.120956 12.877034 11.226762 12.927734 11.351562 C 12.978434 11.476362 13.003906 11.623316 13.003906 11.791016 C 13.003906 11.962616 12.972556 12.119372 12.910156 12.263672 C 12.851656 12.407972 12.761525 12.535331 12.640625 12.644531 C 12.523625 12.749831 12.374706 12.834084 12.191406 12.896484 C 12.008106 12.954984 11.792574 12.984375 11.546875 12.984375 C 11.418175 12.984375 11.298653 12.974578 11.189453 12.955078 C 11.084153 12.939478 10.992056 12.919884 10.910156 12.896484 C 10.828256 12.873084 10.757719 12.849572 10.699219 12.826172 C 10.644619 12.802772 10.603472 12.783178 10.576172 12.767578 L 10.675781 12.427734 C 10.699181 12.443334 10.738369 12.462928 10.792969 12.486328 C 10.847569 12.509728 10.912228 12.533241 10.986328 12.556641 C 11.064328 12.576141 11.148587 12.593775 11.242188 12.609375 C 11.339687 12.624975 11.445494 12.632813 11.558594 12.632812 C 11.929093 12.632812 12.195569 12.556397 12.355469 12.404297 C 12.515369 12.248297 12.59375 12.040597 12.59375 11.779297 C 12.59375 11.607697 12.560441 11.464663 12.494141 11.351562 C 12.431741 11.238462 12.345522 11.148331 12.232422 11.082031 C 12.123222 11.011831 11.993903 10.962847 11.845703 10.935547 C 11.701404 10.904347 11.546612 10.888672 11.382812 10.888672 L 11.324219 10.888672 L 11.324219 10.574219 L 11.458984 10.574219 C 11.564284 10.574219 11.672051 10.564422 11.78125 10.544922 C 11.89435 10.521522 11.996238 10.480375 12.085938 10.421875 C 12.179537 10.363375 12.255953 10.285 12.314453 10.1875 C 12.376853 10.09 12.40625 9.9646001 12.40625 9.8125 C 12.40625 9.6838 12.38665 9.5760281 12.34375 9.4863281 C 12.30085 9.3927281 12.242069 9.3182719 12.167969 9.2636719 C 12.097769 9.2090719 12.013516 9.1698844 11.916016 9.1464844 C 11.822416 9.1191844 11.722487 9.1054687 11.617188 9.1054688 C 11.406587 9.1054688 11.243953 9.1348594 11.126953 9.1933594 C 11.009953 9.2518594 10.913944 9.3067219 10.839844 9.3574219 L 10.675781 9.0585938 C 10.714781 9.0312937 10.763766 8.9999437 10.822266 8.9648438 C 10.884666 8.9297437 10.957162 8.8964344 11.039062 8.8652344 C 11.120963 8.8340344 11.209141 8.8085625 11.306641 8.7890625 C 11.408041 8.7656625 11.517766 8.7539062 11.634766 8.7539062 z "
     id="path4" />
</svg>

<svg xmlns="http://www.w3.org/2000/svg" viewBox="0 0 16 16">
 <path d="m 1.6 0 c -0.886 0 -1.6 0.713 -1.6 1.6 l 0 12.801 c 0 0.886 0.713 1.6 1.6 1.6 l 12.801 0 c 0.886 0 1.6 -0.713 1.6 -1.6 l 0 -12.801 c 0 -0.886 -0.713 -1.6 -1.6 -1.6 l -12.801 0 z m 1.396 4.859 l 0.611 0 l 0 5.705 l 2.936 0 l 0 0.531 l -3.547 0 l 0 -6.236 z m 5.03 0.107 l 0 1.477 l 1.854 0 l 0 0.494 l -1.854 0 l 0 2.475 c 0 0.264 0.021 0.48 0.063 0.648 c 0.048 0.162 0.113 0.289 0.197 0.379 c 0.084 0.09 0.187 0.15 0.307 0.18 c 0.12 0.03 0.252 0.045 0.396 0.045 c 0.246 0 0.444 -0.028 0.594 -0.082 c 0.15 -0.06 0.268 -0.112 0.352 -0.16 l 0.143 0.484 c -0.084 0.054 -0.229 0.117 -0.439 0.189 c -0.21 0.066 -0.44 0.1 -0.686 0.1 c -0.288 0 -0.531 -0.035 -0.729 -0.107 c -0.192 -0.078 -0.349 -0.194 -0.469 -0.344 c -0.114 -0.156 -0.194 -0.346 -0.242 -0.574 c -0.048 -0.228 -0.072 -0.499 -0.072 -0.811 l 0 -4.285 l 0.586 -0.107 z m 3.607 3.787 c 0.203 0 0.377 0.025 0.521 0.076 c 0.148 0.051 0.27 0.123 0.367 0.217 c 0.097 0.09 0.17 0.199 0.217 0.328 c 0.047 0.125 0.07 0.26 0.07 0.408 c 0 0.238 -0.065 0.434 -0.193 0.586 c -0.125 0.148 -0.285 0.256 -0.484 0.322 c 0.109 0.027 0.213 0.068 0.314 0.127 c 0.105 0.055 0.199 0.127 0.281 0.217 c 0.082 0.086 0.149 0.192 0.199 0.316 c 0.051 0.125 0.076 0.272 0.076 0.439 c 0 0.172 -0.031 0.328 -0.094 0.473 c -0.059 0.144 -0.149 0.272 -0.27 0.381 c -0.117 0.105 -0.266 0.19 -0.449 0.252 c -0.183 0.059 -0.399 0.088 -0.645 0.088 c -0.129 0 -0.248 -0.01 -0.357 -0.029 c -0.105 -0.016 -0.197 -0.035 -0.279 -0.059 c -0.082 -0.023 -0.152 -0.047 -0.211 -0.07 c -0.055 -0.023 -0.096 -0.043 -0.123 -0.059 l 0.1 -0.34 c 0.023 0.016 0.063 0.035 0.117 0.059 c 0.055 0.023 0.119 0.047 0.193 0.07 c 0.078 0.019 0.162 0.037 0.256 0.053 c 0.097 0.016 0.203 0.023 0.316 0.023 c 0.37 0 0.637 -0.076 0.797 -0.229 c 0.16 -0.156 0.238 -0.364 0.238 -0.625 c 0 -0.172 -0.033 -0.315 -0.1 -0.428 c -0.062 -0.113 -0.149 -0.203 -0.262 -0.27 c -0.109 -0.07 -0.239 -0.119 -0.387 -0.146 c -0.144 -0.031 -0.299 -0.047 -0.463 -0.047 l -0.059 0 l 0 -0.314 l 0.135 0 c 0.105 0 0.213 -0.01 0.322 -0.029 c 0.113 -0.023 0.215 -0.065 0.305 -0.123 c 0.094 -0.059 0.17 -0.137 0.229 -0.234 c 0.062 -0.098 0.092 -0.223 0.092 -0.375 c 0 -0.129 -0.02 -0.236 -0.063 -0.326 c -0.043 -0.094 -0.102 -0.168 -0.176 -0.223 c -0.07 -0.055 -0.154 -0.094 -0.252 -0.117 c -0.094 -0.027 -0.194 -0.041 -0.299 -0.041 c -0.211 0 -0.373 0.029 -0.49 0.088 c -0.117 0.059 -0.213 0.113 -0.287 0.164 l -0.164 -0.299 c 0.039 -0.027 0.088 -0.059 0.146 -0.094 c 0.062 -0.035 0.135 -0.068 0.217 -0.1 c 0.082 -0.031 0.17 -0.057 0.268 -0.076 c 0.101 -0.023 0.211 -0.035 0.328 -0.035 z" style="fill:#ececec;fill-opacity:1"/>
</svg>
